svg/blobs-icons/no-decorations/microscope.svg

<svg xmlns="http://www.w3.org/2000/svg" xmlns:xlink="http://www.w3.org/1999/xlink" preserveAspectRatio="xMidYMid" width="158" height="216" viewBox="0 0 158 216"><defs><style>.cls-3{fill:#142a3b}.cls-4{fill:#000}.cls-5{fill:#000;opacity:.35}.cls-10{fill:#ededed}.cls-15{fill:#fbb713}.cls-16{fill:#2476ff}.cls-17{fill:#000;opacity:.25}</style></defs><g id="group-117svg"><path d="M43.053 188.92s31.633.0 31.633.0C55.871 180.458 42.275 156.141 42.275 127.445c0-13.714 3.109-26.426 8.405-36.887H38.802c-9.337 11.817-15.189 28.753-15.189 47.578.0 21.539 7.664 40.608 19.44 52.363V188.92z" id="path-1" class="cls-3" fill-rule="evenodd"/><path d="M43.053 190.499S43.053 188.92 43.053 188.92 41.648 188.92 41.648 188.92C42.125 189.435 42.562 190.01 43.053 190.499z" id="path-2" class="cls-4" fill-rule="evenodd"/><path d="M42.275 127.445c0-13.714 3.108-26.426 8.405-36.887H40.577c-5.298 10.461-8.405 23.173-8.405 36.887.0 28.696 13.596 53.013 32.411 61.475H74.686C55.871 180.458 42.275 156.141 42.275 127.445z" id="path-3" class="cls-5" fill-rule="evenodd"/><path d="M107.458 140.53s0 24.896.0 24.896-32.951.0-32.951.0S74.507 171.81 74.507 171.81s49.55.0 49.55.0S124.057 170.533 124.057 170.533s0-5.107.0-5.107.0-24.896.0-24.896-16.599.0-16.599.0z" id="path-4" class="cls-3" fill-rule="evenodd"/><path d="M93.2 203.73s-53.627.0-53.627.0 7.137-35.681 7.137-35.681C48.5 159.1 56.357 152.658 65.483 152.658 74.268 152.658 81.927 158.637 84.057 167.161L93.2 203.73z" id="path-5" class="cls-3" fill-rule="evenodd"/><path d="M84.057 167.161C82.778 162.045 79.487 157.881 75.178 155.341 76.105 156.905 76.863 158.591 77.322 160.424l9.142 36.57s-45.543.0-45.543.0S39.573 203.73 39.573 203.73s53.627.0 53.627.0-9.143-36.569-9.143-36.569z" id="path-6" class="cls-5" fill-rule="evenodd"/><path d="M77.164 83.075c0 13.002-10.542 23.544-23.546 23.544-13.003.0-23.545-10.542-23.545-23.544.0-13.005 10.542-23.547 23.545-23.547 13.004.0 23.546 10.542 23.546 23.547z" id="path-7" class="cls-3" fill-rule="evenodd"/><path d="M77.239 182.662c0 5.994-4.858 10.854-10.852 10.854S55.533 188.656 55.533 182.662C55.533 176.67 60.393 171.81 66.387 171.81S77.239 176.67 77.239 182.662z" id="path-8" class="cls-10" fill-rule="evenodd"/><path d="M65.288 83.075c0 6.443-5.224 11.668-11.67 11.668C47.173 94.743 41.948 89.518 41.948 83.075c0-6.446 5.225-11.671 11.67-11.671C60.064 71.404 65.288 76.629 65.288 83.075z" id="path-9" class="cls-10" fill-rule="evenodd"/><path d="M157.254 134.783s-82.568.0-82.568.0S74.686 125.846 74.686 125.846s82.568.0 82.568.0S157.254 134.783 157.254 134.783z" id="path-10" class="cls-3" fill-rule="evenodd"/><path d="M141.932 142.215s-49.264.0-49.264.0S92.668 133.737 92.668 133.737s49.264.0 49.264.0S141.932 142.215 141.932 142.215z" id="path-11" class="cls-3" fill-rule="evenodd"/><path d="M141.932 138.933S92.668 135.566 92.668 135.566 92.668 133.737 92.668 133.737s49.264.0 49.264.0.0 5.196.0 5.196z" id="path-12" class="cls-5" fill-rule="evenodd"/><path d="M124.812 89.86S95.62 119.051 95.62 119.051s-82.212-82.21-82.212-82.21S42.6 7.65 42.6 7.65s82.212 82.21 82.212 82.21z" id="path-13" class="cls-15" fill-rule="evenodd"/><path d="M36.656 13.594S19.351 30.897 19.351 30.897 5.765 17.31 5.765 17.31 23.069.006 23.069.006 36.656 13.594 36.656 13.594z" id="path-14" class="cls-16" fill-rule="evenodd"/><path d="M80.062 93.389s-61.603-61.6-61.603-61.6-5.051 5.052-5.051 5.052 82.212 82.21 82.212 82.21S124.812 89.86 124.812 89.86 119.76 84.809 119.76 84.809s-8.581 8.58-8.581 8.58C102.586 101.983 88.655 101.983 80.062 93.389z" id="path-15" class="cls-17" fill-rule="evenodd"/><path d="M13.351 18.162s-4.219-4.219-4.219-4.219S5.765 17.31 5.765 17.31 19.351 30.897 19.351 30.897 36.656 13.594 36.656 13.594s-3.368-3.368-3.368-3.368-7.936 7.936-7.936 7.936c-3.314 3.313-8.687 3.313-12.001.0z" id="path-16" class="cls-5" fill-rule="evenodd"/><path d="M124.21 101.145s-17.304 17.303-17.304 17.303S101.467 113.01 101.467 113.01s17.304-17.304 17.304-17.304S124.21 101.145 124.21 101.145z" id="path-17" class="cls-16" fill-rule="evenodd"/><path d="M122.567 200.857s-112.36.0-112.36.0C4.565 200.857-.008 207.43-.008 215.539H132.781C132.781 207.43 128.208 200.857 122.567 200.857z" id="path-18" class="cls-3" fill-rule="evenodd"/><path d="M-.008 215.539s132.789.0 132.789.0C132.781 212.852 132.242 210.365 131.365 208.198H1.409C.531 210.365-.008 212.852-.008 215.539z" id="path-19" class="cls-5" fill-rule="evenodd"/><path d="M34.063 69.961S71.33 98.855 71.33 98.855L73.016 96.409S40.283 63.678 40.283 63.678C37.837 65.363 35.721 67.493 34.063 69.961z" id="path-20" class="cls-5" fill-rule="evenodd"/><path d="M124.057 149.956S107.681 146.589 107.681 146.589s0-4.374.0-4.374 16.376.0 16.376.0S124.057 149.956 124.057 149.956z" id="path-21" class="cls-5" fill-rule="evenodd"/><path d="M119.533 96.421s-15.008 19.647-15.008 19.647S101.412 112.837 101.412 112.837s17.27-17.269 17.27-17.269S119.533 96.421 119.533 96.421z" id="path-22" class="cls-5" fill-rule="evenodd"/><path d="M99.281 79.013C98.364 79.013 97.445 78.664 96.744 77.964L52.998 34.333C51.593 32.932 51.589 30.658 52.991 29.253 54.389 27.847 56.666 27.843 58.071 29.247l43.747 43.63C103.222 74.278 103.226 76.553 101.824 77.957 101.123 78.662 100.202 79.013 99.281 79.013z" id="path-23" class="cls-10" fill-rule="evenodd"/></g></svg>

<svg xmlns="http://www.w3.org/2000/svg" xmlns:xlink="http://www.w3.org/1999/xlink" preserveAspectRatio="xMidYMid" width="158" height="216" viewBox="0 0 158 216">
  <defs>
    <style>

      .cls-3 {
        fill: #142a3b;
      }

      .cls-4 {
        fill: #000000;
      }

      .cls-5 {
        fill: #000000;
        opacity: 0.35;
      }

      .cls-10 {
        fill: #ededed;
      }

      .cls-15 {
        fill: #fbb713;
      }

      .cls-16 {
        fill: #2476ff;
      }

      .cls-17 {
        fill: #000000;
        opacity: 0.25;
      }
    </style>
  </defs>
  <g id="group-117svg">
    <path d="M43.053,188.920 C43.053,188.920 74.686,188.920 74.686,188.920 C55.871,180.458 42.275,156.141 42.275,127.445 C42.275,113.731 45.384,101.019 50.680,90.558 C50.680,90.558 38.802,90.558 38.802,90.558 C29.465,102.375 23.613,119.311 23.613,138.136 C23.613,159.675 31.277,178.744 43.053,190.499 C43.053,190.499 43.053,188.920 43.053,188.920 Z" id="path-1" class="cls-3" fill-rule="evenodd"/>
    <path d="M43.053,190.499 C43.053,190.499 43.053,188.920 43.053,188.920 C43.053,188.920 41.648,188.920 41.648,188.920 C42.125,189.435 42.562,190.010 43.053,190.499 Z" id="path-2" class="cls-4" fill-rule="evenodd"/>
    <path d="M42.275,127.445 C42.275,113.731 45.383,101.019 50.680,90.558 C50.680,90.558 40.577,90.558 40.577,90.558 C35.279,101.019 32.172,113.731 32.172,127.445 C32.172,156.141 45.768,180.458 64.583,188.920 C64.583,188.920 74.686,188.920 74.686,188.920 C55.871,180.458 42.275,156.141 42.275,127.445 Z" id="path-3" class="cls-5" fill-rule="evenodd"/>
    <path d="M107.458,140.530 C107.458,140.530 107.458,165.426 107.458,165.426 C107.458,165.426 74.507,165.426 74.507,165.426 C74.507,165.426 74.507,171.810 74.507,171.810 C74.507,171.810 124.057,171.810 124.057,171.810 C124.057,171.810 124.057,170.533 124.057,170.533 C124.057,170.533 124.057,165.426 124.057,165.426 C124.057,165.426 124.057,140.530 124.057,140.530 C124.057,140.530 107.458,140.530 107.458,140.530 Z" id="path-4" class="cls-3" fill-rule="evenodd"/>
    <path d="M93.200,203.730 C93.200,203.730 39.573,203.730 39.573,203.730 C39.573,203.730 46.710,168.049 46.710,168.049 C48.500,159.100 56.357,152.658 65.483,152.658 C65.483,152.658 65.483,152.658 65.483,152.658 C74.268,152.658 81.927,158.637 84.057,167.161 C84.057,167.161 93.200,203.730 93.200,203.730 Z" id="path-5" class="cls-3" fill-rule="evenodd"/>
    <path d="M84.057,167.161 C82.778,162.045 79.487,157.881 75.178,155.341 C76.105,156.905 76.863,158.591 77.322,160.424 C77.322,160.424 86.464,196.994 86.464,196.994 C86.464,196.994 40.921,196.994 40.921,196.994 C40.921,196.994 39.573,203.730 39.573,203.730 C39.573,203.730 93.200,203.730 93.200,203.730 C93.200,203.730 84.057,167.161 84.057,167.161 Z" id="path-6" class="cls-5" fill-rule="evenodd"/>
    <path d="M77.164,83.075 C77.164,96.077 66.622,106.619 53.618,106.619 C40.615,106.619 30.073,96.077 30.073,83.075 C30.073,70.070 40.615,59.528 53.618,59.528 C66.622,59.528 77.164,70.070 77.164,83.075 Z" id="path-7" class="cls-3" fill-rule="evenodd"/>
    <path d="M77.239,182.662 C77.239,188.656 72.381,193.516 66.387,193.516 C60.393,193.516 55.533,188.656 55.533,182.662 C55.533,176.670 60.393,171.810 66.387,171.810 C72.381,171.810 77.239,176.670 77.239,182.662 Z" id="path-8" class="cls-10" fill-rule="evenodd"/>
    <path d="M65.288,83.075 C65.288,89.518 60.064,94.743 53.618,94.743 C47.173,94.743 41.948,89.518 41.948,83.075 C41.948,76.629 47.173,71.404 53.618,71.404 C60.064,71.404 65.288,76.629 65.288,83.075 Z" id="path-9" class="cls-10" fill-rule="evenodd"/>
    <path d="M157.254,134.783 C157.254,134.783 74.686,134.783 74.686,134.783 C74.686,134.783 74.686,125.846 74.686,125.846 C74.686,125.846 157.254,125.846 157.254,125.846 C157.254,125.846 157.254,134.783 157.254,134.783 Z" id="path-10" class="cls-3" fill-rule="evenodd"/>
    <path d="M141.932,142.215 C141.932,142.215 92.668,142.215 92.668,142.215 C92.668,142.215 92.668,133.737 92.668,133.737 C92.668,133.737 141.932,133.737 141.932,133.737 C141.932,133.737 141.932,142.215 141.932,142.215 Z" id="path-11" class="cls-3" fill-rule="evenodd"/>
    <path d="M141.932,138.933 C141.932,138.933 92.668,135.566 92.668,135.566 C92.668,135.566 92.668,133.737 92.668,133.737 C92.668,133.737 141.932,133.737 141.932,133.737 C141.932,133.737 141.932,138.933 141.932,138.933 Z" id="path-12" class="cls-5" fill-rule="evenodd"/>
    <path d="M124.812,89.860 C124.812,89.860 95.620,119.051 95.620,119.051 C95.620,119.051 13.408,36.841 13.408,36.841 C13.408,36.841 42.600,7.650 42.600,7.650 C42.600,7.650 124.812,89.860 124.812,89.860 Z" id="path-13" class="cls-15" fill-rule="evenodd"/>
    <path d="M36.656,13.594 C36.656,13.594 19.351,30.897 19.351,30.897 C19.351,30.897 5.765,17.310 5.765,17.310 C5.765,17.310 23.069,0.006 23.069,0.006 C23.069,0.006 36.656,13.594 36.656,13.594 Z" id="path-14" class="cls-16" fill-rule="evenodd"/>
    <path d="M80.062,93.389 C80.062,93.389 18.459,31.789 18.459,31.789 C18.459,31.789 13.408,36.841 13.408,36.841 C13.408,36.841 95.620,119.051 95.620,119.051 C95.620,119.051 124.812,89.860 124.812,89.860 C124.812,89.860 119.760,84.809 119.760,84.809 C119.760,84.809 111.179,93.389 111.179,93.389 C102.586,101.983 88.655,101.983 80.062,93.389 Z" id="path-15" class="cls-17" fill-rule="evenodd"/>
    <path d="M13.351,18.162 C13.351,18.162 9.132,13.943 9.132,13.943 C9.132,13.943 5.765,17.310 5.765,17.310 C5.765,17.310 19.351,30.897 19.351,30.897 C19.351,30.897 36.656,13.594 36.656,13.594 C36.656,13.594 33.288,10.226 33.288,10.226 C33.288,10.226 25.352,18.162 25.352,18.162 C22.038,21.475 16.665,21.475 13.351,18.162 Z" id="path-16" class="cls-5" fill-rule="evenodd"/>
    <path d="M124.210,101.145 C124.210,101.145 106.906,118.448 106.906,118.448 C106.906,118.448 101.467,113.010 101.467,113.010 C101.467,113.010 118.771,95.706 118.771,95.706 C118.771,95.706 124.210,101.145 124.210,101.145 Z" id="path-17" class="cls-16" fill-rule="evenodd"/>
    <path d="M122.567,200.857 C122.567,200.857 10.207,200.857 10.207,200.857 C4.565,200.857 -0.008,207.430 -0.008,215.539 C-0.008,215.539 132.781,215.539 132.781,215.539 C132.781,207.430 128.208,200.857 122.567,200.857 Z" id="path-18" class="cls-3" fill-rule="evenodd"/>
    <path d="M-0.008,215.539 C-0.008,215.539 132.781,215.539 132.781,215.539 C132.781,212.852 132.242,210.365 131.365,208.198 C131.365,208.198 1.409,208.198 1.409,208.198 C0.531,210.365 -0.008,212.852 -0.008,215.539 Z" id="path-19" class="cls-5" fill-rule="evenodd"/>
    <path d="M34.063,69.961 C34.063,69.961 71.330,98.855 71.330,98.855 C73.016,96.409 71.330,98.855 73.016,96.409 C73.016,96.409 40.283,63.678 40.283,63.678 C37.837,65.363 35.721,67.493 34.063,69.961 Z" id="path-20" class="cls-5" fill-rule="evenodd"/>
    <path d="M124.057,149.956 C124.057,149.956 107.681,146.589 107.681,146.589 C107.681,146.589 107.681,142.215 107.681,142.215 C107.681,142.215 124.057,142.215 124.057,142.215 C124.057,142.215 124.057,149.956 124.057,149.956 Z" id="path-21" class="cls-5" fill-rule="evenodd"/>
    <path d="M119.533,96.421 C119.533,96.421 104.525,116.068 104.525,116.068 C104.525,116.068 101.412,112.837 101.412,112.837 C101.412,112.837 118.682,95.568 118.682,95.568 C118.682,95.568 119.533,96.421 119.533,96.421 Z" id="path-22" class="cls-5" fill-rule="evenodd"/>
    <path d="M99.281,79.013 C98.364,79.013 97.445,78.664 96.744,77.964 C96.744,77.964 52.998,34.333 52.998,34.333 C51.593,32.932 51.589,30.658 52.991,29.253 C54.389,27.847 56.666,27.843 58.071,29.247 C58.071,29.247 101.818,72.877 101.818,72.877 C103.222,74.278 103.226,76.553 101.824,77.957 C101.123,78.662 100.202,79.013 99.281,79.013 Z" id="path-23" class="cls-10" fill-rule="evenodd"/>
  </g>
</svg>
